X: 15846
T: Gortnatubrid, The
R: polka
M: 2/4
K: Bminor
f>e|:dB c/B/A|Bc de|fd ed|cA f>e|
dB c/B/A|Bc de|fd ec|1 B2 f>e:|2 B2 B2||
|:~f2 ba|fe fe|dB c/B/A|Bc de|
fb ag|fe fe|dB c/B/A|1 B2 B2:|2 B2 f>e||

